!!!OTL: 973a. Ringeltanzlied.
!!!ODT: 1863
!!!ARE: Europa, Mitteleuropa, Deutschland, Friesack, Viegnitz
!!!SCT: E0973
!!!TXL: @@DE
!!!YEM: Copyright 1995, estate of Helmut Schaffrath.
**kern	**text
*ICvox	*
*M3/4	*
*k[f#]	*
*G:	*
=1	=1
!LO:TX:a:t=Chor.	!
!LO:TX:a:t=Aus Vietʒnitʒ bei Frieſack. 1863.	!
{4d	1._Wenn
4g	mich
4g	das
=2	=2
4g	Glück
4f#	be-
4a}	-trifft
=3	=3
{4d	in
4a	die-
4a	-ſem
=4	=4
(4a	Rei-
4g)	.
4b}	-hen,
=5	=5
{4g	ſo
4b	ſol-
4b	-len
=6	=6
4b	Al-
4a	-le
4cc}	mir
=7	=7
{4cc	1._die-
4f#	-ſes
4f#	ver-
=8	=8
2g	-ʒei-
4g}	-hen.
=9	=9
{4d	2._Daß
4g	ich
4g	ſo
=10	=10
4g	drei-
4f#	-ſte
4a}	bin
=11	=11
{4d	und
4a	mir
4a	er-
=12	=12
(4a	-wäh-
4g)	.
4b}	-le
=13	=13
{4g	den
4b	al-
4b	-ler-
=14	=14
4b	-ſchön-
4a	-ſten
4cc}	Schatʒ
=15	=15
{4cc	2._von
4f#	mei-
4f#	-ner
=16	=16
2g	See-
4g}	-le.
=17	=17
!LO:TX:a:t=Einzelne.	!
{4b	3._Du,
4dd	du
4dd	ge-
=18	=18
4dd	-fällſt
4cc	mir
4ee}	nicht,
=19	=19
{4a	du
4cc	biſt
4cc	von
=20	=20
(4cc	Flan-
4b)	.
4dd}	-dern,
=21	=21
{4g	3._ſonſt
4b	hätt
4b	ich
=22	=22
4b	dich
4a	ge-
4cc}	-liebt
=23	=23
{4cc	vor
4f#	al-
4f#	-len
=24	=24
2a	An-
4g}	-dern.
=25	=25
{4b	4._Du
4dd	biſt
4dd	mir
=26	=26
4dd	auch
4cc	nicht
4ee}	recht,
=27	=27
{4a	du
4cc	biſt
4cc	ʒu
=28	=28
(4cc	hi-
4b)	.
4dd}	-tʒig.
=29	=29
{4g	4._und
4b	dei-
4b	-ne
=30	=30
4b	Re-
4a	-den
4cc}	ſind
=31	=31
{4cc	mir
4f#	viel
4f#	ʒu
=32	=32
2a	ſpi-
4g}	-tʒig.
=33	=33
{4b	5._Du,
4dd	du
4dd	mein
=34	=34
4dd	Au-
4cc	-gen-
4ee}	-troſt,
=35	=35
{4a	du,
4cc	du
4cc	mein
=36	=36
(4cc	Le-
4b)	.
4dd}	-ben,
=37	=37
{4g	5._dir
4b	will
4b	ich
=38	=38
4b	ganʒ
4a	al-
4cc}	-lein
=39	=39
{4cc	ein
4f#	Küß-
4f#	-chen
=40	=40
2a	ge-
4g}	-ben.
==	==
!!!AGN: Tanz - Lied, Reigen
!!!ONB: ESAC (Essen Associative Code) Database: ERK2
!!!AMT: simple triple
!!!AIN: vox
!!!EED: Helmut Schaffrath
!!!EEV: 1.0
!!!GTL: Tanz- und Spiellieder.
!!!URL-scan: https://rosdok.uni-rostock.de/mcrviewer/recordIdentifier/rosdok_ppn745177662/iview2/phys_0743.iview2?x=-151.00528573090037&y=690.1141809727997&scale=0.5208463313777512&rotation=0&layout=singlePageLayout
!!!ENC: Anna Maria Matuszewska
!!!EEV: 2024/12/20
*-	*-
